jsapp/svg-icons/qt-select-many.svg

<svg height="642" viewBox="0 0 642 642" width="642" xmlns="http://www.w3.org/2000/svg"><path d="m113 113c-26.509668 0-48 21.490332-48 48s21.490332 48 48 48 48-21.490332 48-48-21.490332-48-48-48zm0 160c-26.509668 0-48 21.490332-48 48s21.490332 48 48 48 48-21.490332 48-48-21.490332-48-48-48zm-48 208c0 26.509668 21.490332 48 48 48s48-21.490332 48-48-21.490332-48-48-48-48 21.490332-48 48zm496-32h-320c-8.836556 0-16 7.163444-16 16v32c0 8.836556 7.163444 16 16 16h320c8.836556 0 16-7.163444 16-16v-32c0-8.836556-7.163444-16-16-16zm0-320h-320c-8.836556 0-16 7.163444-16 16v32c0 8.836556 7.163444 16 16 16h320c8.836556 0 16-7.163444 16-16v-32c0-8.836556-7.163444-16-16-16zm0 160h-320c-8.836556 0-16 7.163444-16 16v32c0 8.836556 7.163444 16 16 16h320c8.836556 0 16-7.163444 16-16v-32c0-8.836556-7.163444-16-16-16z"/></svg>

<svg id="Layer_1" data-name="Layer 1" xmlns="http://www.w3.org/2000/svg" viewBox="0 0 642 642"><path d="M113,113a48,48,0,1,0,48,48A48,48,0,0,0,113,113Zm0,160a48,48,0,1,0,48,48A48,48,0,0,0,113,273Zm0,160a48,48,0,1,0,48,48A48,48,0,0,0,113,433Zm448,16H241a16,16,0,0,0-16,16v32a16,16,0,0,0,16,16H561a16,16,0,0,0,16-16V465A16,16,0,0,0,561,449Zm0-320H241a16,16,0,0,0-16,16v32a16,16,0,0,0,16,16H561a16,16,0,0,0,16-16V145A16,16,0,0,0,561,129Zm0,160H241a16,16,0,0,0-16,16v32a16,16,0,0,0,16,16H561a16,16,0,0,0,16-16V305A16,16,0,0,0,561,289Z"/></svg>
